X:6
T: ALLE LEUTE SOLLENS WISSEN
N: E0619
O: Europa, Mitteleuropa, Deutschland, Unter - Taunus, Wuerges
R: Liebes - Lied, Abschied
M: 2/4
L: 1/16
K: G
 | d2B2d2B2 | ABcdc2B2 |
d2B2d2B2 | ABcdc2B2 |
e2e2g2fe | edd2g4 |
ABcdedc2 | cBB2B4

@@@ Tune index: 4319
